brandFactory_export/3.Masa/Certificado_3Masa.svg

<?xml version="1.0" encoding="UTF-8"?>
<svg width="24px" height="24px" viewBox="0 0 24 24" version="1.1" xmlns="http://www.w3.org/2000/svg" xmlns:xlink="http://www.w3.org/1999/xlink">
    <title>3.Masa/Certificado_3Masa</title>
    <g id="Symbols" stroke="none" stroke-width="1" fill="none" fill-rule="evenodd">
        <g id="3.Masa/Certificado_3Masa" fill="#5CB615" fill-rule="nonzero">
            <path d="M18.707563,6.78319328 L13.8436975,2 L13.8436975,4.11764706 C13.8436975,4.90756303 14.0991597,5.57310924 14.5798319,6.04705882 C15.0672269,6.52773109 15.7596639,6.77983193 16.5764706,6.77983193 L18.707563,6.77983193 L18.707563,6.78319328 Z M20.687395,6.91092437 C20.7243697,6.99831933 20.7445378,7.09579832 20.7445378,7.19663866 L20.7445378,21.9630252 C20.7445378,22.8638655 19.9815126,23.6235294 19.0806723,23.6235294 L4.6907563,23.6235294 C3.80672269,23.6235294 3.02689076,22.8470588 3.02689076,21.9630252 L3.07394958,18.0067227 L3.02689076,8.44033613 L3.02689076,1.6605042 C3.02689076,0.789915966 3.82016807,0 4.6907563,0 L13.4504202,0 C13.7226891,0 13.9882353,0.11092437 14.1798319,0.302521008 L20.4319328,6.45042017 C20.5630252,6.57478992 20.6403361,6.7394958 20.687395,6.91092437 L20.687395,6.91092437 Z M12.1932773,9.75798319 C14.2806723,9.75798319 15.2117647,10.7058824 15.2117647,12.8302521 C15.2117647,14.9546218 14.2806723,15.8991597 12.1932773,15.8991597 C10.1058824,15.8991597 9.17478992,14.9512605 9.17478992,12.8302521 C9.17478992,10.7058824 10.1058824,9.75798319 12.1932773,9.75798319 L12.1932773,9.75798319 Z M15.6521008,15.2403361 C15.6453782,15.2268908 15.6352941,15.2168067 15.6285714,15.2067227 C15.9781513,14.5915966 16.1697479,13.8084034 16.1697479,12.8336134 C16.1697479,10.0806723 14.7042017,8.78991597 12.1932773,8.78991597 C9.68235294,8.78991597 8.22016807,10.0806723 8.22016807,12.8336134 C8.22016807,13.6638655 8.36806723,14.3428571 8.62016807,14.9109244 C8.59327731,14.9445378 8.56302521,14.9747899 8.54621849,15.0151261 L6.70084034,19.0890756 C6.58655462,19.3445378 6.62016807,19.6369748 6.79495798,19.8554622 C6.96638655,20.0739496 7.24537815,20.1714286 7.57142857,20.0907563 L8.69411765,19.6705882 L9.13781513,20.8705882 C9.26554622,21.112605 9.50420168,21.2605042 9.77310924,21.2605042 L9.79327731,21.2605042 C10.0689076,21.2537815 10.3109244,21.0890756 10.4285714,20.8369748 L12.0487395,17.2571429 L13.6689076,20.8369748 C13.7831933,21.0890756 14.0285714,21.2537815 14.3042017,21.2605042 L14.3243697,21.2605042 C14.589916,21.2605042 14.8352941,21.112605 14.9831933,20.8134454 L15.4033613,19.6705882 L16.5831933,20.1109244 C16.8487395,20.1647059 17.1277311,20.0739496 17.2991597,19.8554622 C17.4739496,19.6369748 17.507563,19.3445378 17.3932773,19.0890756 L15.6521008,15.2403361 L15.6521008,15.2403361 Z M10.7109244,13.4655462 L10.6201681,14.0235294 C10.5697479,14.3294118 10.6941176,14.6319328 10.9361345,14.8067227 C11.0705882,14.9042017 11.2252101,14.9512605 11.3798319,14.9512605 C11.5042017,14.9512605 11.6319328,14.9210084 11.7495798,14.8537815 L12.1966387,14.605042 L12.6403361,14.8537815 C12.8890756,14.994958 13.2117647,14.9781513 13.4504202,14.8067227 C13.6957983,14.6285714 13.8168067,14.3294118 13.7697479,14.0201681 L13.6789916,13.4655462 L14.0554622,13.0756303 C14.2638655,12.8605042 14.3378151,12.5478992 14.2403361,12.2554622 C14.1462185,11.9697479 13.9109244,11.7647059 13.6218487,11.7243697 L13.1176471,11.6470588 L12.8857143,11.1495798 C12.6235294,10.5915966 11.7495798,10.594958 11.4941176,11.1495798 L11.2655462,11.6403361 L10.7613445,11.7176471 C10.4756303,11.7613445 10.2369748,11.9663866 10.1428571,12.2521008 C10.0487395,12.5411765 10.1193277,12.8537815 10.3277311,13.0722689 L10.7109244,13.4655462 L10.7109244,13.4655462 Z" id="Certificado_3Masa"></path>
        </g>
    </g>
</svg>

<svg width="24" height="24" viewBox="0 0 24 24" xmlns="http://www.w3.org/2000/svg"><path d="M18.708 6.783L13.844 2v2.118c0 .79.255 1.455.736 1.93.487.48 1.18.732 1.996.732h2.132v.003zm1.98.128a.735.735 0 01.057.286v14.766c0 .9-.763 1.66-1.664 1.66H4.69c-.884 0-1.664-.776-1.664-1.66l.047-3.956-.047-9.567V1.66C3.027.79 3.82 0 4.69 0h8.76c.272 0 .537.11.729.303l6.252 6.147c.131.125.208.29.255.46zm-8.495 2.847c2.088 0 3.019.948 3.019 3.072 0 2.125-.931 3.07-3.019 3.07-2.087 0-3.018-.949-3.018-3.07 0-2.124.93-3.072 3.018-3.072zm3.46 5.482c-.008-.013-.018-.023-.024-.033.35-.615.54-1.399.54-2.373 0-2.753-1.465-4.044-3.976-4.044-2.51 0-3.973 1.29-3.973 4.044 0 .83.148 1.509.4 2.077-.027.034-.057.064-.074.104L6.701 19.09a.737.737 0 00.094.766c.171.219.45.316.776.236l1.123-.42.444 1.2c.128.242.366.39.635.39h.02a.72.72 0 00.636-.424l1.62-3.58 1.62 3.58c.114.252.36.417.635.424h.02c.266 0 .511-.148.66-.448l.42-1.142 1.18.44a.723.723 0 00.715-.256.737.737 0 00.094-.766l-1.74-3.849zm-4.942-1.774l-.09.558a.802.802 0 00.315.783.752.752 0 00.814.047l.447-.249.443.249a.76.76 0 00.81-.047.81.81 0 00.32-.787l-.091-.554.376-.39a.806.806 0 00.185-.82.766.766 0 00-.618-.532l-.504-.077-.232-.497c-.262-.558-1.136-.555-1.392 0l-.228.49-.505.078a.78.78 0 00-.618.534.817.817 0 00.185.82l.383.394z" fill="#5CB615" fill-rule="nonzero"/></svg>
